X:1
T:Van Dieman's Land
M:6/8
L:1/8
K:C
 D| D2 D F2 G| A2- G c2d/2-c/2| A2- G/2F/2 D2 D| D3- D z D| D2 D F2 G|\
 A2 G c2d/2-c/2| A2G/2-F/2 D2 D| D3- D z A/2A/2| A2 A G2 G| Ad d2e-d|\
 c2 AG-F D| C3- CF E| D2 D F2 G| A2 G c2d/2-c/2| A2G/2-F/2 D2 D| D3- D2||\


